X:1
T:Balquidder Lasses
S:Jim Coon, internet
Z:Nigel Gatherer
M:4/4
L:1/8
K:C
AG | F2 EF DEFG  | A2 A2 d4    | c2 G2 GAGE | CDEF G2 
AG | F2 EF DEFG  | A2 A2 d4    | c2 G2 AGFE | D6      :|
A2 | d2 de d2 A2 | defe  d2 AB | c2 cd cGEG | CDEF G2 
A2 | d2 de d2 A2 | defe  d2 AB | c2 G2 AGFE | D6      
A2 | d2 de d2 A2 | defe  d2 AB | c2 cd cGEG | CDEF G2 
AG | F2 EF DEFG  | A2 A2 d4    | c2 G2 AGFE | D6      |]
